static/media/laptop-solid.svg

<svg aria-hidden="true" focusable="false" data-prefix="fas" data-icon="laptop" class="svg-inline--fa fa-laptop fa-w-20" role="img" xmlns="http://www.w3.org/2000/svg" viewBox="0 0 640 512"><path fill="currentColor" d="M624 416H381.54c-.74 19.81-14.71 32-32.74 32H288c-18.69 0-33.02-17.47-32.77-32H16c-8.8 0-16 7.2-16 16v16c0 35.2 28.8 64 64 64h512c35.2 0 64-28.8 64-64v-16c0-8.8-7.2-16-16-16zM576 48c0-26.4-21.6-48-48-48H112C85.6 0 64 21.6 64 48v336h512V48zm-64 272H128V64h384v256z"></path></svg>

<svg width="640" height="512" viewBox="0 0 640 512" fill="none" xmlns="http://www.w3.org/2000/svg">
<path d="M624 416H381.54C380.8 435.81 366.83 448 348.8 448H288C269.31 448 254.98 430.53 255.23 416H16C7.2 416 0 423.2 0 432V448C0 483.2 28.8 512 64 512H576C611.2 512 640 483.2 640 448V432C640 423.2 632.8 416 624 416ZM576 48C576 21.6 554.4 0 528 0H112C85.6 0 64 21.6 64 48V384H576V48ZM512 320H128V64H512V320Z" fill="white"/>
</svg>
